images/card-dark.svg

<svg width="235" height="352" viewBox="0 0 235 352" fill="none" xmlns="http://www.w3.org/2000/svg">
<rect x="0.167236" y="0.853882" width="234.062" height="351.092" rx="10" fill="black"/>
<rect x="0.167236" y="0.853882" width="234.062" height="351.092" rx="10" fill="url(#paint0_linear)" fill-opacity="0.5"/>
<g clip-path="url(#clip0)">
<path d="M90.9697 58.3842L87.6497 53.5854L86.6537 54.7438V58.3842H83.6657V41.5887H86.6537V51.0206H86.8197L90.4718 46.7184H93.9578L89.6417 51.6825L94.2068 58.3842H90.9697Z" fill="white"/>
<path d="M99.3532 58.549C98.1913 58.549 97.1953 58.3008 96.3652 57.8044C95.5352 57.308 94.8713 56.6461 94.3733 55.7361C93.8753 54.8259 93.7093 53.8331 93.7093 52.592C93.7093 51.4337 93.9583 50.3581 94.3733 49.448C94.7883 48.5379 95.4522 47.7933 96.2822 47.2969C97.1123 46.8004 98.1083 46.4696 99.2703 46.4696C100.266 46.4696 101.179 46.7177 101.926 47.1314C102.756 47.5451 103.337 48.207 103.835 49.0344C104.333 49.8618 104.499 50.9373 104.499 52.1784V53.4194H96.6143C96.6973 54.2467 97.0293 54.9913 97.4443 55.4878C97.9423 55.9842 98.5233 56.2324 99.4362 56.2324C100.1 56.2324 100.681 56.0669 101.013 55.7361C101.345 55.4051 101.594 55.0741 101.76 54.5777L104.416 55.3223C104.25 55.8187 104.001 56.3979 103.586 56.8943C103.171 57.3908 102.673 57.8044 101.926 58.1354C101.179 58.3835 100.349 58.549 99.3532 58.549ZM99.1873 48.9517C98.5233 48.9517 97.9423 49.1998 97.5273 49.6135C97.1123 50.0272 96.7803 50.6064 96.6143 51.4337H101.677C101.677 50.7719 101.428 50.1926 101.013 49.6963C100.515 49.1998 99.9343 48.9517 99.1873 48.9517Z" fill="white"/>
<path d="M108.566 58.8799L108.815 58.3007L104.582 46.7176H107.653L110.226 54.4121H110.392L112.965 46.7176H116.036L111.056 60.1209C110.89 60.5347 110.641 61.031 110.309 61.4448C109.977 61.8584 109.562 62.2721 109.064 62.5203C108.566 62.7685 107.902 62.934 107.155 62.934C106.823 62.934 106.574 62.934 106.242 62.8513C105.91 62.7685 105.744 62.6858 105.495 62.603L106.159 60.2864C106.906 60.4519 107.404 60.4519 107.736 60.2037C107.985 60.0382 108.317 59.5418 108.566 58.8799Z" fill="white"/>
<path d="M126.411 50.4408L123.672 50.8544C123.506 50.2753 123.257 49.8617 122.925 49.5307C122.593 49.1997 122.095 49.0343 121.431 49.0343C120.518 49.0343 119.937 49.3652 119.439 50.0271C119.024 50.689 118.775 51.5164 118.775 52.5919C118.775 53.6675 119.024 54.5776 119.439 55.2395C119.854 55.9014 120.518 56.2323 121.431 56.2323C122.012 56.2323 122.51 56.0668 122.842 55.736C123.174 55.405 123.506 54.9912 123.589 54.4949L126.328 54.9086C126.079 55.9841 125.498 56.8942 124.668 57.6388C123.755 58.3007 122.676 58.7144 121.348 58.7144C120.186 58.7144 119.273 58.4662 118.443 57.9698C117.613 57.4733 117.032 56.7287 116.534 55.8186C116.119 54.9086 115.87 53.833 115.87 52.6746C115.87 51.5164 116.119 50.4408 116.534 49.5307C116.949 48.6206 117.613 47.9587 118.443 47.4623C119.273 46.9658 120.186 46.7176 121.348 46.7176C122.676 46.7176 123.755 47.0486 124.668 47.7932C125.664 48.2897 126.245 49.2824 126.411 50.4408Z" fill="white"/>
<path d="M134.13 58.3834V57.0597H133.964C133.798 57.3907 133.466 57.8043 132.968 58.1353C132.47 58.4662 131.806 58.6317 130.976 58.6317C130.312 58.6317 129.648 58.4662 129.067 58.218C128.486 57.9698 128.071 57.5561 127.656 57.0597C127.324 56.5633 127.158 55.9014 127.158 55.1567C127.158 53.9985 127.573 53.1711 128.403 52.5919C129.233 52.0128 130.395 51.6818 131.889 51.5164C132.221 51.5164 132.553 51.4336 132.885 51.4336C133.217 51.4336 133.466 51.3509 133.715 51.2682C133.881 51.1854 134.047 51.0199 134.047 50.8544V50.689C134.047 50.1926 133.881 49.7789 133.549 49.4479C133.217 49.1997 132.802 49.0343 132.304 49.0343C131.723 49.0343 131.308 49.1997 130.893 49.4479C130.478 49.6962 130.312 50.0271 130.146 50.4408L127.407 50.0271C127.656 48.9516 128.237 48.1242 129.15 47.545C130.063 46.9658 131.142 46.7176 132.387 46.7176C133.134 46.7176 133.881 46.8831 134.628 47.1313C135.292 47.3796 135.873 47.7932 136.371 48.3723C136.786 48.9516 137.035 49.7789 137.035 50.689V58.5489H134.13V58.3834ZM133.964 54.4949V52.9229C133.881 53.0056 133.715 53.0884 133.549 53.1711C133.3 53.2539 133.051 53.2539 132.802 53.3365C132.553 53.4193 132.304 53.4193 132.138 53.4193C131.474 53.502 130.893 53.6675 130.561 53.9157C130.229 54.1639 130.063 54.5776 130.063 55.074C130.063 55.4877 130.229 55.8186 130.478 56.0668C130.81 56.3151 131.142 56.3978 131.64 56.3978C132.304 56.3978 132.802 56.2323 133.3 55.8186C133.798 55.405 133.964 54.9912 133.964 54.4949Z" fill="white"/>
<path d="M145.999 46.9664L145.086 49.5312C145.003 49.4485 144.837 49.4485 144.671 49.3657C144.505 49.283 144.256 49.283 144.007 49.283C143.509 49.283 143.094 49.3657 142.762 49.6139C142.43 49.8621 142.098 50.1931 141.932 50.524C141.766 50.9377 141.6 51.3514 141.6 51.7651V58.384H138.612V46.7181H141.517V48.3729H141.683C141.849 47.7938 142.181 47.2973 142.679 47.0491C143.177 46.7181 143.758 46.5527 144.339 46.5527C144.671 46.5527 144.92 46.5527 145.252 46.6354C145.584 46.7181 145.833 46.8009 145.999 46.9664Z" fill="white"/>
<path d="M156.209 58.3839H153.304V56.9774H153.138C152.972 57.3911 152.64 57.722 152.142 58.0529C151.644 58.3839 151.063 58.5494 150.233 58.5494C149.32 58.5494 148.573 58.3012 147.909 57.8875C147.245 57.3911 146.664 56.7292 146.249 55.8191C145.834 54.909 145.668 53.8334 145.668 52.5096C145.668 51.1859 145.917 50.1103 146.332 49.2002C146.747 48.29 147.328 47.6282 147.992 47.2144C148.739 46.8008 149.486 46.5526 150.316 46.5526C151.063 46.5526 151.727 46.7181 152.225 47.049C152.723 47.3799 153.055 47.7109 153.221 48.1246H153.304V42.8295H156.209V58.3839ZM148.407 52.5096C148.407 53.5852 148.656 54.4953 149.071 55.1572C149.486 55.8191 150.15 56.1501 151.063 56.1501C151.644 56.1501 152.142 55.9846 152.557 55.6536C152.889 55.3227 153.221 54.909 153.387 54.3298C153.553 53.7507 153.636 53.1715 153.636 52.5096C153.636 51.5168 153.47 50.6066 153.055 49.9448C152.64 49.2829 152.059 48.9519 151.146 48.9519C150.233 48.9519 149.652 49.2829 149.154 49.9448C148.656 50.6066 148.407 51.434 148.407 52.5096Z" fill="white"/>
<path d="M85.0768 44.3186C81.2588 44.3186 78.1878 41.1747 78.1878 37.3688C78.1878 33.5629 81.2588 30.5017 85.0768 30.5017C88.8948 30.5017 91.9659 33.5629 91.9659 37.3688C92.0489 41.1747 88.8948 44.3186 85.0768 44.3186ZM85.0768 33.232C82.7528 33.232 80.9268 35.1349 80.9268 37.3688C80.9268 39.6854 82.8358 41.5056 85.0768 41.5056C87.4009 41.5056 89.2268 39.6027 89.2268 37.3688C89.3098 35.1349 87.4009 33.232 85.0768 33.232Z" fill="white"/>
</g>
<g clip-path="url(#clip1)">
<path d="M134.377 265.851C134.047 265.521 133.599 265.337 133.133 265.338C132.667 265.338 132.22 265.524 131.891 265.854C131.562 266.184 131.377 266.632 131.378 267.098C131.379 267.564 131.565 268.011 131.895 268.34C132.628 269.073 133.211 269.944 133.608 270.903C134.005 271.862 134.209 272.889 134.209 273.927C134.209 274.964 134.005 275.992 133.608 276.95C133.211 277.909 132.628 278.78 131.895 279.513C131.731 279.676 131.602 279.87 131.513 280.083C131.425 280.296 131.379 280.525 131.379 280.755C131.378 280.986 131.424 281.215 131.512 281.428C131.6 281.641 131.729 281.835 131.892 281.998C132.055 282.162 132.249 282.291 132.462 282.38C132.675 282.468 132.903 282.514 133.134 282.514C133.365 282.514 133.593 282.469 133.806 282.381C134.02 282.293 134.214 282.164 134.377 282.001C135.437 280.941 136.277 279.683 136.851 278.299C137.424 276.914 137.719 275.43 137.719 273.932C137.719 272.433 137.424 270.949 136.851 269.565C136.277 268.18 135.437 266.922 134.377 265.863L134.377 265.851Z" fill="white" fill-opacity="0.5"/>
<path d="M137.173 264.622C139.639 267.09 141.024 270.437 141.024 273.926C141.024 277.415 139.639 280.761 137.173 283.23C137.006 283.392 136.872 283.585 136.78 283.8C136.688 284.014 136.64 284.244 136.637 284.477C136.635 284.71 136.68 284.941 136.768 285.157C136.856 285.373 136.987 285.569 137.152 285.734C137.316 285.899 137.512 286.029 137.728 286.117C137.944 286.205 138.175 286.25 138.408 286.248C138.641 286.246 138.872 286.197 139.086 286.105C139.3 286.013 139.494 285.88 139.656 285.712C142.783 282.584 144.54 278.343 144.54 273.92C144.54 269.497 142.783 265.255 139.656 262.127C139.325 261.798 138.877 261.614 138.41 261.615C138.179 261.616 137.95 261.662 137.737 261.751C137.524 261.84 137.33 261.97 137.167 262.133C137.004 262.297 136.875 262.492 136.787 262.705C136.699 262.919 136.654 263.148 136.655 263.379C136.656 263.846 136.843 264.293 137.173 264.622V264.622Z" fill="white" fill-opacity="0.5"/>
</g>
<rect x="71.1659" y="248.179" width="46.8123" height="49.2129" rx="5" fill="#EEC458"/>
<rect x="71.1659" y="248.179" width="46.8123" height="49.2129" rx="5" fill="url(#paint1_linear)" fill-opacity="0.6"/>
<mask id="mask0" mask-type="alpha" maskUnits="userSpaceOnUse" x="71" y="248" width="47" height="50">
<rect x="71.1659" y="248.179" width="46.8123" height="49.2129" rx="5" fill="#EEC458"/>
<rect x="71.1659" y="248.179" width="46.8123" height="49.2129" rx="5" fill="url(#paint2_linear)" fill-opacity="0.6"/>
</mask>
<g mask="url(#mask0)">
<rect x="50.54" y="262.662" width="38.1311" height="49.054" stroke="#C4A145" stroke-width="4"/>
<rect x="105.935" y="240.036" width="38.1311" height="62.3175" stroke="#C4A145" stroke-width="4"/>
<rect x="105.495" y="262.223" width="13.2635" height="3.12082" fill="#C4A145"/>
<rect x="105.495" y="262.223" width="13.2635" height="3.12082" fill="#C4A145"/>
<rect x="105.495" y="262.223" width="13.2635" height="3.12082" fill="#C4A145"/>
<rect x="105.495" y="262.223" width="13.2635" height="3.12082" fill="#C4A145"/>
<rect x="105.495" y="279.387" width="13.2635" height="3.12082" fill="#C4A145"/>
<rect x="105.495" y="279.387" width="13.2635" height="3.12082" fill="#C4A145"/>
<rect x="105.495" y="279.387" width="13.2635" height="3.12082" fill="#C4A145"/>
<rect x="105.495" y="279.387" width="13.2635" height="3.12082" fill="#C4A145"/>
<rect x="66.4847" y="272.365" width="22.6259" height="3.12082" fill="#C4A145"/>
<rect x="66.4847" y="272.365" width="22.6259" height="3.12082" fill="#C4A145"/>
<rect x="66.4847" y="272.365" width="22.6259" height="3.12082" fill="#C4A145"/>
<rect x="66.4847" y="272.365" width="22.6259" height="3.12082" fill="#C4A145"/>
<rect x="66.4847" y="284.849" width="22.6259" height="3.12082" fill="#C4A145"/>
<rect x="66.4847" y="284.849" width="22.6259" height="3.12082" fill="#C4A145"/>
<rect x="66.4847" y="284.849" width="22.6259" height="3.12082" fill="#C4A145"/>
<rect x="66.4847" y="284.849" width="22.6259" height="3.12082" fill="#C4A145"/>
</g>
<defs>
<linearGradient id="paint0_linear" x1="-72.3919" y1="302.793" x2="234.229" y2="-170.011" gradientUnits="userSpaceOnUse">
<stop/>
<stop offset="1" stop-color="white"/>
</linearGradient>
<linearGradient id="paint1_linear" x1="140.864" y1="231.775" x2="75.3258" y2="262.84" gradientUnits="userSpaceOnUse">
<stop stop-color="white"/>
<stop offset="1" stop-color="white" stop-opacity="0"/>
</linearGradient>
<linearGradient id="paint2_linear" x1="140.864" y1="231.775" x2="75.3258" y2="262.84" gradientUnits="userSpaceOnUse">
<stop stop-color="white"/>
<stop offset="1" stop-color="white" stop-opacity="0"/>
</linearGradient>
<clipPath id="clip0">
<rect width="78.0205" height="32.7984" fill="white" transform="translate(78.1878 30.5017)"/>
</clipPath>
<clipPath id="clip1">
<rect width="42.1311" height="13.3045" fill="white" transform="translate(144.546 252.86) rotate(90)"/>
</clipPath>
</defs>
</svg>

<svg width="235" height="352" fill="none" xmlns="http://www.w3.org/2000/svg"><rect x=".167" y=".854" width="234.062" height="351.092" rx="10" fill="#000"/><rect x=".167" y=".854" width="234.062" height="351.092" rx="10" fill="url(#paint0_linear)" fill-opacity=".5"/><g clip-path="url(#clip0)" fill="#fff"><path d="M90.97 58.384l-3.32-4.799-.996 1.159v3.64h-2.988V41.59h2.988v9.432h.166l3.652-4.303h3.486l-4.316 4.964 4.565 6.702H90.97z"/><path d="M99.353 58.549c-1.162 0-2.158-.248-2.988-.745a5.322 5.322 0 0 1-1.992-2.068c-.498-.91-.664-1.903-.664-3.144 0-1.158.25-2.234.664-3.144a4.822 4.822 0 0 1 1.91-2.151 5.746 5.746 0 0 1 2.987-.827c.996 0 1.909.248 2.656.661.83.414 1.411 1.076 1.909 1.903.498.828.664 1.903.664 3.144v1.241h-7.885c.083.828.415 1.572.83 2.069.498.496 1.08.744 1.992.744.664 0 1.245-.165 1.577-.496.332-.33.581-.662.747-1.158l2.656.744c-.166.497-.415 1.076-.83 1.572-.415.497-.913.91-1.66 1.241a7.983 7.983 0 0 1-2.573.414zm-.166-9.597c-.664 0-1.245.248-1.66.662-.415.413-.747.992-.913 1.82h5.063c0-.662-.249-1.241-.664-1.738-.498-.496-1.079-.744-1.826-.744zm9.379 9.928l.249-.58-4.233-11.582h3.071l2.573 7.694h.166l2.573-7.694h3.071l-4.98 13.403c-.166.414-.415.91-.747 1.324-.332.413-.747.827-1.245 1.075-.498.248-1.162.414-1.909.414-.332 0-.581 0-.913-.083-.332-.082-.498-.165-.747-.248l.664-2.317c.747.166 1.245.166 1.577-.082.249-.166.581-.662.83-1.324zm17.845-8.44l-2.739.414c-.166-.579-.415-.992-.747-1.323-.332-.331-.83-.497-1.494-.497-.913 0-1.494.331-1.992.993-.415.662-.664 1.49-.664 2.565s.249 1.986.664 2.648c.415.661 1.079.992 1.992.992.581 0 1.079-.165 1.411-.496.332-.331.664-.745.747-1.241l2.739.414c-.249 1.075-.83 1.985-1.66 2.73a5.492 5.492 0 0 1-3.32 1.075c-1.162 0-2.075-.248-2.905-.744-.83-.497-1.411-1.241-1.909-2.151a7.601 7.601 0 0 1-.664-3.144 7.6 7.6 0 0 1 .664-3.144c.415-.91 1.079-1.572 1.909-2.069.83-.496 1.743-.744 2.905-.744 1.328 0 2.407.33 3.32 1.075.996.497 1.577 1.49 1.743 2.648zm7.719 7.943V57.06h-.166c-.166.33-.498.744-.996 1.075-.498.331-1.162.497-1.992.497a4.937 4.937 0 0 1-1.909-.414c-.581-.248-.996-.662-1.411-1.158-.332-.497-.498-1.159-.498-1.903 0-1.158.415-1.986 1.245-2.565.83-.58 1.992-.91 3.486-1.076.332 0 .664-.082.996-.082.332 0 .581-.083.83-.166.166-.083.332-.248.332-.414v-.165c0-.496-.166-.91-.498-1.241a2.043 2.043 0 0 0-1.245-.414c-.581 0-.996.166-1.411.414-.415.248-.581.58-.747.993l-2.739-.414c.249-1.075.83-1.903 1.743-2.482.913-.58 1.992-.827 3.237-.827.747 0 1.494.165 2.241.413a4.24 4.24 0 0 1 1.743 1.241c.415.58.664 1.407.664 2.317v7.86h-2.905v-.166zm-.166-3.888v-1.572c-.083.083-.249.165-.415.248-.249.083-.498.083-.747.166a2.086 2.086 0 0 1-.664.082c-.664.083-1.245.248-1.577.497-.332.248-.498.662-.498 1.158 0 .414.166.745.415.993.332.248.664.33 1.162.33.664 0 1.162-.165 1.66-.578.498-.414.664-.828.664-1.324zm12.035-7.529l-.913 2.565c-.083-.082-.249-.082-.415-.165-.166-.083-.415-.083-.664-.083-.498 0-.913.083-1.245.33-.332.25-.664.58-.83.911-.166.414-.332.827-.332 1.241v6.619h-2.988V46.718h2.905v1.655h.166c.166-.58.498-1.076.996-1.324a3 3 0 0 1 1.66-.496c.332 0 .581 0 .913.082.332.083.581.166.747.331zm10.21 11.418h-2.905v-1.407h-.166c-.166.414-.498.745-.996 1.076-.498.33-1.079.496-1.909.496-.913 0-1.66-.248-2.324-.661a5.248 5.248 0 0 1-1.66-2.069c-.415-.91-.581-1.986-.581-3.31 0-1.323.249-2.399.664-3.309.415-.91.996-1.572 1.66-1.986.747-.413 1.494-.661 2.324-.661.747 0 1.411.165 1.909.496.498.33.83.662.996 1.076h.083V42.83h2.905v15.554zm-7.802-5.874c0 1.075.249 1.985.664 2.647.415.662 1.079.993 1.992.993.581 0 1.079-.165 1.494-.496.332-.331.664-.745.83-1.324.166-.58.249-1.158.249-1.82 0-.993-.166-1.903-.581-2.565-.415-.662-.996-.993-1.909-.993s-1.494.33-1.992.993c-.498.662-.747 1.489-.747 2.565zm-63.33-8.191c-3.818 0-6.89-3.144-6.89-6.95a6.861 6.861 0 0 1 6.89-6.867 6.861 6.861 0 0 1 6.889 6.867c.083 3.806-3.071 6.95-6.89 6.95zm0-11.087a4.155 4.155 0 0 0-4.15 4.137c0 2.316 1.909 4.137 4.15 4.137a4.155 4.155 0 0 0 4.15-4.137c.083-2.234-1.826-4.137-4.15-4.137z"/></g><g clip-path="url(#clip1)" fill="#fff" fill-opacity=".5"><path d="M134.377 265.851a1.754 1.754 0 0 0-1.244-.513 1.754 1.754 0 0 0-1.755 1.76c.001.466.187.913.517 1.242a7.899 7.899 0 0 1 0 11.173 1.758 1.758 0 1 0 2.482 2.488c1.06-1.06 1.9-2.318 2.474-3.702a11.424 11.424 0 0 0 0-8.734 11.402 11.402 0 0 0-2.474-3.702v-.012z"/><path d="M137.173 264.622a13.164 13.164 0 0 1 0 18.608 1.757 1.757 0 0 0 1.235 3.018 1.757 1.757 0 0 0 1.248-.536 16.679 16.679 0 0 0 0-23.585 1.762 1.762 0 0 0-3.001 1.252c.001.467.188.914.518 1.243z"/></g><rect x="71.166" y="248.179" width="46.812" height="49.213" rx="5" fill="#EEC458"/><rect x="71.166" y="248.179" width="46.812" height="49.213" rx="5" fill="url(#paint1_linear)" fill-opacity=".6"/><mask id="a" maskUnits="userSpaceOnUse" x="71" y="248" width="47" height="50"><rect x="71.166" y="248.179" width="46.812" height="49.213" rx="5" fill="#EEC458"/><rect x="71.166" y="248.179" width="46.812" height="49.213" rx="5" fill="url(#paint2_linear)" fill-opacity=".6"/></mask><g mask="url(#a)"><path stroke="#C4A145" stroke-width="4" d="M50.54 262.662h38.131v49.054H50.54zm55.395-22.626h38.131v62.318h-38.131z"/><path fill="#C4A145" d="M105.495 262.223h13.264v3.121h-13.264z"/><path fill="#C4A145" d="M105.495 262.223h13.264v3.121h-13.264z"/><path fill="#C4A145" d="M105.495 262.223h13.264v3.121h-13.264z"/><path fill="#C4A145" d="M105.495 262.223h13.264v3.121h-13.264zm0 17.164h13.264v3.121h-13.264z"/><path fill="#C4A145" d="M105.495 279.387h13.264v3.121h-13.264z"/><path fill="#C4A145" d="M105.495 279.387h13.264v3.121h-13.264z"/><path fill="#C4A145" d="M105.495 279.387h13.264v3.121h-13.264zm-39.01-7.022h22.626v3.121H66.485z"/><path fill="#C4A145" d="M66.485 272.365h22.626v3.121H66.485z"/><path fill="#C4A145" d="M66.485 272.365h22.626v3.121H66.485z"/><path fill="#C4A145" d="M66.485 272.365h22.626v3.121H66.485zm0 12.484h22.626v3.121H66.485z"/><path fill="#C4A145" d="M66.485 284.849h22.626v3.121H66.485z"/><path fill="#C4A145" d="M66.485 284.849h22.626v3.121H66.485z"/><path fill="#C4A145" d="M66.485 284.849h22.626v3.121H66.485z"/></g><defs><linearGradient id="paint0_linear" x1="-72.392" y1="302.793" x2="234.229" y2="-170.011" gradientUnits="userSpaceOnUse"><stop/><stop offset="1" stop-color="#fff"/></linearGradient><linearGradient id="paint1_linear" x1="140.864" y1="231.775" x2="75.326" y2="262.84" gradientUnits="userSpaceOnUse"><stop stop-color="#fff"/><stop offset="1" stop-color="#fff" stop-opacity="0"/></linearGradient><linearGradient id="paint2_linear" x1="140.864" y1="231.775" x2="75.326" y2="262.84" gradientUnits="userSpaceOnUse"><stop stop-color="#fff"/><stop offset="1" stop-color="#fff" stop-opacity="0"/></linearGradient><clipPath id="clip0"><path fill="#fff" transform="translate(78.188 30.502)" d="M0 0h78.02v32.798H0z"/></clipPath><clipPath id="clip1"><path fill="#fff" transform="rotate(90 -54.157 198.703)" d="M0 0h42.131v13.305H0z"/></clipPath></defs></svg>
